package/converter/svg/light/square-9.svg

<svg xmlns="http://www.w3.org/2000/svg" viewBox="0 0 448 512"><!-- Font Awesome Pro 6.0.0-alpha2 by @fontawesome - https://fontawesome.com License - https://fontawesome.com/license (Commercial License) --><path d="M224 128C171.062 128 128 171.062 128 224C128 273.717 166.123 314.244 214.596 319.049L166.406 355.188C159.344 360.5 157.906 370.531 163.188 377.594C166.344 381.781 171.156 384 176 384C179.344 384 182.719 382.969 185.594 380.812L275.188 313.594C316.816 282.396 320 234.348 320 224C320 171.062 276.938 128 224 128ZM224 288C188.654 288 160 259.346 160 224C160 188.652 188.654 160 224 160S288 188.652 288 224C288 259.346 259.346 288 224 288ZM384 32H64C28.654 32 0 60.654 0 96V416C0 451.346 28.654 480 64 480H384C419.346 480 448 451.346 448 416V96C448 60.654 419.346 32 384 32ZM416 416C416 433.645 401.645 448 384 448H64C46.355 448 32 433.645 32 416V96C32 78.355 46.355 64 64 64H384C401.645 64 416 78.355 416 96V416Z"/></svg>

<svg xmlns="http://www.w3.org/2000/svg" viewBox="0 0 448 512"><!--! Font Awesome Pro 6.6.0 by @fontawesome - https://fontawesome.com License - https://fontawesome.com/license (Commercial License) Copyright 2024 Fonticons, Inc. --><path d="M384 64c17.7 0 32 14.3 32 32l0 320c0 17.7-14.3 32-32 32L64 448c-17.7 0-32-14.3-32-32L32 96c0-17.7 14.3-32 32-32l320 0zM64 32C28.7 32 0 60.7 0 96L0 416c0 35.3 28.7 64 64 64l320 0c35.3 0 64-28.7 64-64l0-320c0-35.3-28.7-64-64-64L64 32zM224 288a64 64 0 1 1 0-128 64 64 0 1 1 0 128zm-3.7 31.9l-39.1 36.3c-6.5 6-6.9 16.1-.8 22.6s16.1 6.9 22.6 .8l82.7-76.8c22-20.4 34.4-49 34.4-78.9c0-53-43-96-96-96s-96 43-96 96c0 51.8 41 94 92.3 95.9z"/></svg>
